assets/img/braze_icons/arrow-circle-broken-left.svg

<svg fill="none" height="24" viewBox="0 0 24 24" width="24" xmlns="http://www.w3.org/2000/svg"><path d="m22.66 9.27574c.1272.49915.1908.74876.109 1.01656-.0654.2137-.246.4462-.437.5623-.2393.1454-.5354.1454-1.1275.1454h-10.7903l2.2929-2.29289c.3905-.39053.3905-1.02369 0-1.41422-.3905-.39052-1.0237-.39052-1.4142 0l-4.00001 4.00001c-.39052.3905-.39052 1.0237 0 1.4142l4.00001 4c.3905.3905 1.0237.3905 1.4142 0s.3905-1.0237 0-1.4142l-2.2929-2.2929h10.7903c.5921 0 .8882 0 1.1275.1454.191.1161.3716.3486.437.5623.0818.2678.0182.5174-.109 1.0166-1.2121 4.7574-5.5252 8.2757-10.66 8.2757-6.07513 0-11-4.9249-11-11 0-6.07513 4.92487-11 11-11 5.1348 0 9.4479 3.51831 10.66 8.27574z" fill="#801ed7"/></svg>

<svg width="24" height="24" viewBox="0 0 24 24" fill="none" xmlns="http://www.w3.org/2000/svg">
<path d="M22.66 9.27574C22.7872 9.77489 22.8508 10.0245 22.769 10.2923C22.7036 10.506 22.523 10.7385 22.332 10.8546C22.0927 11 21.7966 11 21.2045 11L10.4142 11L12.7071 8.70711C13.0976 8.31658 13.0976 7.68342 12.7071 7.29289C12.3166 6.90237 11.6834 6.90237 11.2929 7.29289L7.29289 11.2929C6.90237 11.6834 6.90237 12.3166 7.29289 12.7071L11.2929 16.7071C11.6834 17.0976 12.3166 17.0976 12.7071 16.7071C13.0976 16.3166 13.0976 15.6834 12.7071 15.2929L10.4142 13L21.2045 13C21.7966 13 22.0927 13 22.332 13.1454C22.523 13.2615 22.7036 13.494 22.769 13.7077C22.8508 13.9755 22.7872 14.2251 22.66 14.7243C21.4479 19.4817 17.1348 23 12 23C5.92487 23 1 18.0751 1 12C1 5.92487 5.92487 1 12 1C17.1348 1 21.4479 4.51831 22.66 9.27574Z" fill="#801ED7"/>
</svg>
